!!!!SEGMENT:20Kinuta_c.krn
!!!OTL: きぬた
!!!OPR:Eiga Banso Kyokusyu,jidai-geki,zenpen
!!!YOY:1929
!!!ONB:Kenka,Machinaka
**kern
*clefG2
*C:
*M2/4
=1
4b-X
4a
=2
8.eL
16gJk
8aL
8aJ
=3
8b-XL
8dd
8ee
8ddJ
=4
8eeL
16eeL
16eeJJ
8eeL
8eeJ
=5
8ccL
8ee
8ff#
8eeJ
=6
8ff#L
16ff#L
16ff#JJ
8ff#L
8ff#J
=7
8ggL
16ggL
16ggJJ
16ff#LL
16ff#
16gg
16ff#JJ
=8
16eeLL
16ee
(16ff#
16eeJJ)
4cc
=9
16eeLL
16ff#
(16ff#
16eeJJ)
4cc
=10
8eL
8cc
8b
8aJ
=11
16ccLL
16b
16b
16aJJ
8f#
8r
=12
4f#
4f#
=13
4f#
4f#
=14
8r
8f#L
8f#
8f#J
=15
8f#L
8f#J
8f#L
8f#J
=16
8f#L
8g
8b
8gJ
=17
8f#L
8e
8c
8BJ
=18
8dL
8e
8f#
8aJ
=19
8bL
8bJ
4r
==
*-
!!!ENC: Yukiko Yoden
!!!END: 2023/06/11
